dressly/src/assets/artwork/object.svg

<svg width="50" height="50" viewBox="220 0 50 120" fill="none" xmlns="http://www.w3.org/2000/svg">
<mask id="path-1-inside-1_318_199" fill="white">
<path fill-rule="evenodd" clip-rule="evenodd" d="M0.891846 51.7091L197.105 51.7091C225.291 51.7091 248.14 74.5584 248.14 102.744C248.14 74.5583 270.989 51.7091 299.175 51.7091H476.369L299.175 51.7091C270.989 51.7091 248.14 28.8598 248.14 0.673813V0.673867C248.14 28.8599 225.291 51.7091 197.105 51.7091H0.891846Z"/>
</mask>
<path fill-rule="evenodd" clip-rule="evenodd" d="M0.891846 51.7091L197.105 51.7091C225.291 51.7091 248.14 74.5584 248.14 102.744C248.14 74.5583 270.989 51.7091 299.175 51.7091H476.369L299.175 51.7091C270.989 51.7091 248.14 28.8598 248.14 0.673813V0.673867C248.14 28.8599 225.291 51.7091 197.105 51.7091H0.891846Z" fill="#E09370"/>
<path d="M197.105 51.7091L197.105 56.3487H197.105V51.7091ZM299.175 51.7091L299.175 47.0695H299.175V51.7091ZM0.891845 56.3486L197.105 56.3487L197.105 47.0695L0.891847 47.0695L0.891845 56.3486ZM197.105 56.3487C222.729 56.3487 243.501 77.1207 243.501 102.744H252.78C252.78 71.996 227.853 47.0695 197.105 47.0695V56.3487ZM252.78 102.744C252.78 77.1207 273.552 56.3487 299.175 56.3487V47.0695C268.427 47.0695 243.501 71.9959 243.501 102.744H252.78ZM299.175 56.3487H476.369V47.0695H299.175V56.3487ZM476.369 47.0695L299.175 47.0695L299.175 56.3486L476.369 56.3487L476.369 47.0695ZM299.175 47.0695C273.552 47.0695 252.78 26.2974 252.78 0.673813H243.501C243.501 31.4222 268.427 56.3486 299.175 56.3486V47.0695ZM243.501 0.673813V0.673867H252.78V0.673813H243.501ZM243.501 0.673867C243.501 26.2975 222.729 47.0695 197.105 47.0695V56.3486C227.853 56.3486 252.78 31.4222 252.78 0.673867H243.501ZM197.105 47.0695H0.891846V56.3486H197.105V47.0695Z" fill="#E09370" mask="url(#path-1-inside-1_318_199)"/>
</svg>

<svg xmlns="http://www.w3.org/2000/svg" width="50" height="50" fill="none" viewBox="220 0 50 120"><mask id="a" fill="#fff"><path fill-rule="evenodd" d="M.892 51.71h196.213c28.186 0 51.035 22.848 51.035 51.034 0-28.186 22.849-51.035 51.035-51.035h177.194-177.194c-28.186 0-51.035-22.85-51.035-51.035 0 28.186-22.849 51.035-51.035 51.035z" clip-rule="evenodd"/></mask><path fill="#E09370" fill-rule="evenodd" d="M.892 51.71h196.213c28.186 0 51.035 22.848 51.035 51.034 0-28.186 22.849-51.035 51.035-51.035h177.194-177.194c-28.186 0-51.035-22.85-51.035-51.035 0 28.186-22.849 51.035-51.035 51.035z" clip-rule="evenodd"/><path fill="#E09370" d="M197.105 51.71v4.639zm102.07 0v-4.64zM.892 56.348h196.213v-9.28H.892zm196.213 0c25.624 0 46.396 20.772 46.396 46.395h9.279c0-30.748-24.927-55.674-55.675-55.674zm55.675 46.395c0-25.623 20.772-46.395 46.395-46.395v-9.28c-30.748 0-55.674 24.927-55.674 55.675zm46.395-46.395h177.194v-9.28H299.175zm177.194-9.28H299.175v9.28h177.194zm-177.194 0c-25.623 0-46.395-20.772-46.395-46.395h-9.279c0 30.748 24.926 55.675 55.674 55.675zM243.501.674h9.279zm0 0c0 25.623-20.772 46.396-46.396 46.396v9.279c30.748 0 55.675-24.927 55.675-55.675zM197.105 47.07H.892v9.279h196.213z" mask="url(#a)"/></svg>
